!!!!SEGMENT: pl-kk--kk-i-1--004-002_jachet-de-mantua--missa-quam-pulchra-es-et-in-terra.krn
!!!cenid: 15xx:669
!!!COM: Jachet de Mantua
!!!COM-rismid: pe30003816
!!!CDT:
!!!CNT:
!!!OPR: [Missa] Quam pulchra es
!!!OTL: Et in terra
!!!OMV: 002
!!!PDT:
!!!AGN:
!!!SMS-siglum: PL-Kk
!!!SMS-shelfmark: Kk.I.1
!!!SMS-shelfwork: 004-002 M
!!!SMS-variant:
!!!SMS-altvar:
!!!NIFC-rismid: 300257958
!!!URL-scan: http://repozytorium.nifc.pl/skany/pl-kk-nut--i-1
!!!ONB-nifc: UWAGA: Cantus (s. 21v-30v, skan 0024-0033), Altus (s. 21r-31r, skan 0213-0223), Tenor (s. 22r-31r, skan 0410-0419), Bassus (s. 20v-30r, skan 0582-0591). Części Mszy: 1. Kyrie, 2. Et in terra, 3. Patrem, 4. Sanctus, 5. Agnus Dei
!!!AIN: 1 alto 1 bass 1 soprn 1 tenor
!!!key: F
**kern	**text	**kern	**text	**kern	**text	**kern	**text
*part4	*part4	*part3	*part3	*part2	*part2	*part1	*part1
*staff4	*staff4	*staff3	*staff3	*staff2	*staff2	*staff1	*staff1
*I"BASSVS	*	*I"TENOR	*	*I"ALTVS	*	*I"CANTVS	*
*I'B	*	*I'T	*	*I'A	*	*I'C	*
*ICvox	*	*ICvox	*	*ICvox	*	*ICvox	*
*Ibass	*	*Itenor	*	*Ialto	*	*Isoprn	*
*clefF4	*	*clefC4	*	*clefC4	*	*clefC4	*
*k[b-]	*	*k[b-]	*	*k[b-]	*	*k[b-]	*
*F:	*	*F:	*	*F:	*	*F:	*
*M2/1	*	*M2/1	*	*M2/1	*	*M2/1	*
*met(C|)	*	*met(C|)	*	*met(C|)	*	*met(C|)	*
=1	=1	=1	=1	=1	=1	=1	=1
0r	.	0r	.	0r	.	1.F	Et
!	!	!	!	!	!	!LO:TX:t=P:problem=kreska pseudotaktowa	!
.	.	.	.	.	.	2F/	in
=2	=2	=2	=2	=2	=2	=2	=2
0r	.	0r	.	0r	.	1F	ter-
.	.	.	.	.	.	1B-	-ra
=3	=3	=3	=3	=3	=3	=3	=3
!	!	!	!	!LO:TX:t=P:problem=kreska pseudotaktowa	!	!LO:TX:t=P:problem=kreska pseudotaktowa	!
0r	.	0r	.	1.F	ET	1A	pax
.	.	.	.	.	.	2r	.
!	!	!	!	!LO:TX:t=P:problem=kreska pseudotaktowa	!	!	!
.	.	.	.	2F/	in	2F/	ho-
=4	=4	=4	=4	=4	=4	=4	=4
0r	.	0r	.	1F	ter-	1c	-mi-
!	!	!	!	!	!	!LO:TX:t=P:problem=kreska pseudotaktowa	!
.	.	.	.	1B-	-ra	1d	-ni-
=5	=5	=5	=5	=5	=5	=5	=5
!	!	!LO:TX:t=P:problem=kreska pseudotaktowa	!	!LO:TX:t=P:problem=kreska pseudotaktowa	!	!	!
0r	.	1.F	ET	1A	pax	2.c\	-bus
.	.	.	.	.	.	8B-\L	.
!	!	!	!	!	!	!LO:TX:t=P:problem=kreska pseudotaktowa	!
.	.	.	.	.	.	8c\J	.
.	.	.	.	2r	.	2d\	.
!	!	!LO:TX:t=P:problem=kreska pseudotaktowa	!	!	!	!	!
.	.	2F/	in	2F/	ho-	1c	.
=6	=6	=6	=6	=6	=6	=6	=6
0r	.	1F	ter-	2c\	  mi-	.	.
!	!	!	!	!LO:TX:t=P:problem=kreska pseudotaktowa	!	!	!
.	.	.	.	2c\	-ni-	4B-/	.
*	*	*	*	*	*	*custos:G	*
!	!	!	!	!	!	!LO:TX:t=P:problem=kreska pseudotaktowa	!
.	.	.	.	.	.	4A/	.
!	!	!	!	!	!	!LO:LB:g=original	!
.	.	1B-	-ra	1d	-bus	1G	.
=7	=7	=7	=7	=7	=7	=7	=7
!LO:TX:t=P:problem=kreska pseudotaktowa	!	!LO:TX:t=P:problem=kreska pseudotaktowa	!	!	!	!	!
1.FF	ET	1A	pax,	2.c\	bo-	0r	.
.	.	.	.	8B-\L	-ne	.	.
!	!	!	!	!LO:TX:t=P:problem=kreska pseudotaktowa	!	!	!
.	.	.	.	8c\J	.	.	.
*	*	*	*	*custos:c	*	*	*
.	.	2r	.	2d\	vo-	.	.
!	!	!	!	!LO:LB:g=original	!	!	!
2FF/	in	2F/	ho-	2.c\	-lun-	.	.
=8	=8	=8	=8	=8	=8	=8	=8
!LO:TX:t=P:problem=kreska pseudotaktowa	!	!	!	!	!	!	!
1FF	ter-	2c\	-mi-	.	.	0r	.
.	.	.	.	4B-\	-ta-	.	.
!	!	!LO:TX:t=P:problem=kreska pseudotaktowa	!	!	!	!	!
.	.	2c\	-ni-	1A	-tis,	.	.
1BB-	-ra	1d,	-bus	.	.	.	.
!	!	!	!	!LO:TX:t=P:problem=kreska pseudotaktowa	!	!	!
.	.	.	.	2G/	.	.	.
=9	=9	=9	=9	=9	=9	=9	=9
!LO:TX:t=P:problem=kreska pseudotaktowa	!	!	!	!	!	!	!
1AA	pax	2.c\	bo-	1A	.	0r	.
.	.	8B-\L	-ne	.	.	.	.
!	!	!LO:TX:t=P:problem=kreska pseudotaktowa	!	!	!	!	!
.	.	8c\J	.	.	.	.	.
2r	.	2d\	vo-	2D/	.	.	.
!	!	!	!	!LO:TX:t=P:problem=kreska pseudotaktowa	!	!	!
2FF/	ho-	2.c\	-lun-	2A/	.	.	.
=10	=10	=10	=10	=10	=10	=10	=10
2C/	-mi-	.	.	2G/	.	0r	.
.	.	4B-/	.	.	.	.	.
!LO:TX:t=P:problem=kreska pseudotaktowa	!	!	!	!	!	!	!
2C/	-ni-	4A/	-ta-	1c	.	.	.
*	*	*custos:F	*	*	*	*	*
!	!	!LO:TX:t=P:problem=kreska pseudotaktowa	!	!	!	!	!
.	.	4G/	-tis,	.	.	.	.
!	!	!LO:LB:g=original	!	!	!	!	!
*	*	*lig	*	*	*	*	*
1D,	-bus	1F	.	.	.	.	.
.	.	.	.	2B-\	.	.	.
=11	=11	=11	=11	=11	=11	=11	=11
!	!	!	!	!LO:TX:t=P:problem=kreska pseudotaktowa	!	!LO:TX:t=P:problem=kreska pseudotaktowa	!
2.C/	bo-	1G	.	1c	.	2r	.
.	.	.	.	.	.	2c\	bo-
8BB-/L	-ne	.	.	.	.	.	.
8C/J	.	.	.	.	.	.	.
*	*	*Xlig	*	*	*	*	*
!LO:TX:t=P:problem=kreska pseudotaktowa	!	!	!	!	!	!	!
2D/	.	2F/	.	1r	.	2A/	-ne
*custos:AA	*	*	*	*	*	*	*
!	!	!LO:TX:t=P:problem=kreska pseudotaktowa	!	!	!	!	!
1C	vo-	2A/	lau-	.	.	1c	vo-
!LO:LB:g=original	!	!	!	!	!	!	!
=12	=12	=12	=12	=12	=12	=12	=12
.	.	2G/	-da-	1r	.	.	.
!LO:TX:t=P:problem=kreska pseudotaktowa	!	!	!	!	!	!LO:TX:t=P:problem=kreska pseudotaktowa	!
2AA/	.	1F	.	.	.	2c\	-lun-
2BB-/	-lun-	.	.	2r	.	2B-/	-ta-
2C/	-ta-	2E/	-mus	1c	lau-	2G/	-tis,
=13	=13	=13	=13	=13	=13	=13	=13
!LO:TX:t=P:problem=kreska pseudotaktowa	!	!LO:TX:t=P:problem=kreska pseudotaktowa	!	!	!	!	!
1FF	-tis,	1F	te,	.	.	2A/	.
!	!	!	!	!LO:TX:t=P:problem=kreska pseudotaktowa	!	!	!
.	.	.	.	2A/	-da-	1f	lau-
1r	.	1r	.	1B-	-mus	.	.
!	!	!	!	!	!	!LO:TX:t=P:problem=kreska pseudotaktowa	!
.	.	.	.	.	.	2d\	-da-
=14	=14	=14	=14	=14	=14	=14	=14
!	!	!	!	!LO:TX:t=P:problem=kreska pseudotaktowa	!	!	!
1r	.	2r	.	1A	te,	1e	-mus
.	.	1c	be-	.	.	.	.
!	!	!	!	!	!	!LO:TX:t=P:problem=kreska pseudotaktowa	!
2r	.	.	.	1r	.	1c	te,
!	!	!LO:TX:t=P:problem=kreska pseudotaktowa	!	!	!	!	!
1F	be-	2A/	-ne-	.	.	.	.
=15	=15	=15	=15	=15	=15	=15	=15
.	.	2c\	-di-	0r	.	1r	.
!LO:TX:t=P:problem=kreska pseudotaktowa	!	!	!	!	!	!	!
2C/	-ne-	2c\	-ci-	.	.	.	.
2G\	-di-	1B-	-mus	.	.	2r	.
2G\	-ci-	.	.	.	.	1d	a-
=16	=16	=16	=16	=16	=16	=16	=16
!	!	!LO:TX:t=P:problem=kreska pseudotaktowa	!	!LO:TX:t=P:problem=kreska pseudotaktowa	!	!	!
1F	-mus	1A	te,	2r	.	.	.
!	!	!	!	!	!	!LO:TX:t=P:problem=kreska pseudotaktowa	!
.	.	.	.	1c	be-	2c\	-do-
!LO:TX:t=P:problem=kreska pseudotaktowa	!	!	!	!	!	!	!
1E	te,	2r	.	.	.	2.e\	-ra-
!	!	!	!	!LO:TX:t=P:problem=kreska pseudotaktowa	!	!	!
.	.	1G	a-	2c\	-ne-	.	.
.	.	.	.	.	.	4f\	-mus-
=17	=17	=17	=17	=17	=17	=17	=17
*	*	*	*	*custos:G	*	*custos:d	*
1r	.	.	.	2B-\	-dici-	2g\	-te,
!	!	!LO:TX:t=P:problem=kreska pseudotaktowa	!	!	!	!LO:TX:t=P:problem=kreska pseudotaktowa	!
!	!	!	!	!LO:LB:g=original	!	!LO:LB:g=original	!
.	.	2G/	-do-	2G/	-mus	2d\	.
!	!	!	!	!LO:TX:t=P:problem=kreska pseudotaktowa	!	!	!
2r	.	2F/	-ra-	1A	te,	1f	glo-
!LO:TX:t=P:problem=kreska pseudotaktowa	!	!LO:TX:t=P:problem=kreska pseudotaktowa	!	!	!	!	!
2D/	Glo-	2D/	-mus	.	.	.	.
=18	=18	=18	=18	=18	=18	=18	=18
*	*	*custos:G	*	*	*	*	*
2.G\	-ri-	2E,/	te,	2r	.	2e\	-ri-
!	!	!LO:TX:t=P:problem=kreska pseudotaktowa	!	!	!	!	!
!	!	!LO:LB:g=original	!	!	!	!	!
.	.	2G/	glo-	2G/	Glo-	2.d\	-fi-
4G\	-fi-	.	.	.	.	.	.
2F\	-ca-	2A/	-ri-	2d\	-ri-	.	.
.	.	.	.	.	.	4c\	-ca-
!LO:TX:t=P:problem=kreska pseudotaktowa	!	!	!	!LO:TX:t=P:problem=kreska pseudotaktowa	!	!	!
2E\	-mus	2G/	-fi-	2e\	-fi-	1c	-mus
=19	=19	=19	=19	=19	=19	=19	=19
1D	te;	2G/	-ca-	2f\	-ca-	.	.
!	!	!LO:TX:t=P:problem=kreska pseudotaktowa	!	!	!	!	!
.	.	2F/	-mus	2f\	-mus	2B-\	te,
*custos:F	*	*	*	*	*	*	*
!LO:TX:t=P:problem=kreska pseudotaktowa	!	!LO:TX:t=P:problem=kreska pseudotaktowa	!	!LO:TX:t=P:problem=kreska pseudotaktowa	!	!LO:TX:t=P:problem=kreska pseudotaktowa	!
1C	.	1G	te,	1e	te,	0c	.
!LO:LB:g=original	!	!	!	!	!	!	!
=20	=20	=20	=20	=20	=20	=20	=20
1.F	Gra-	1.A	Gra-	1.c	Gra-	.	.
.	.	.	.	.	.	1r	.
!	!	!LO:TX:t=P:problem=kreska pseudotaktowa	!	!LO:TX:t=P:problem=kreska pseudotaktowa	!	!	!
2F\	-ti-	2A/	-ti-	2c\	-ti-	.	.
=21	=21	=21	=21	=21	=21	=21	=21
!LO:TX:t=P:problem=kreska pseudotaktowa	!	!	!	!LO:TX:t=P:problem=kreska pseudotaktowa	!	!	!
1F	-as	1A,	-as	1c	-as	1r	.
*	*ij	*	*	*	*	*	*
1.BB-	Gra-	1.F	a-	1.d	gra-	1.B-	Gra-
=22	=22	=22	=22	=22	=22	=22	=22
.	.	.	.	.	.	.	.
!	!	!LO:TX:t=P:problem=kreska pseudotaktowa	!	!	!	!LO:TX:t=P:problem=kreska pseudotaktowa	!
2C/	-ti-	2E/	-gi-	2c\	-ti-	2G/	-tias
!LO:TX:t=P:problem=kreska pseudotaktowa	!	!	!	!LO:TX:t=P:problem=kreska pseudotaktowa	!	!	!
1C	-as	1E	-mus	1c	-as	2.G/	a-
.	.	.	.	.	.	4A/	-gi-
*	*Xij	*	*	*	*	*	*
=23	=23	=23	=23	=23	=23	=23	=23
!	!	!	!	!	!	!LO:TX:t=P:problem=kreska pseudotaktowa	!
2.GG/	a-	2D/	.	0d	a-	1B-	-mus
!	!	!LO:TX:t=P:problem=kreska pseudotaktowa	!	!	!	!	!
.	.	2G/	ti-	.	.	.	.
!LO:TX:t=P:problem=kreska pseudotaktowa	!	!	!	!	!	!	!
4AA/	-gi-	.	.	.	.	.	.
2BB-/	-mus	2F/	-bi	.	.	2r	.
*	*	*	*	*	*	*	*ij
1GG	.	2.G/	.	.	.	1G	Gra-
=24	=24	=24	=24	=24	=24	=24	=24
!	!	!	!	!LO:TX:t=P:problem=kreska pseudotaktowa	!	!	!
.	.	.	.	1d	-gi-	.	.
.	.	4F/	.	.	.	.	.
*	*	*custos:D	*	*	*	*	*
!	!	!LO:TX:t=P:problem=kreska pseudotaktowa	!	!	!	!LO:TX:t=P:problem=kreska pseudotaktowa	!
1G	ti-	2G/	.	.	.	2G/	-ti-
!	!	!LO:LB:g=original	!	!	!	!	!
.	.	1D	.	1d	-mus	1A	-as
!LO:TX:t=P:problem=kreska pseudotaktowa	!	!	!	!	!	!	!
2F\	-bi	.	.	.	.	.	.
=25	=25	=25	=25	=25	=25	=25	=25
*	*	*	*	*custos:c	*	*	*
*	*	*	*	*	*	*custos:E	*
!	!	!	!	!LO:TX:t=P:problem=kreska pseudotaktowa	!	!	!
1G	.	2r	.	1B-	.	2G/	a-
!	!	!LO:TX:t=P:problem=kreska pseudotaktowa	!	!	!	!	!
!	!	!	!	!	!	!LO:LB:g=original	!
.	.	2G/	prop-	.	.	2E/	-gi-
!LO:TX:t=P:problem=kreska pseudotaktowa	!	!	!	!	!	!	!
!	!	!	!	!LO:LB:g=original	!	!	!
1C	.	2G/	-ter	1c	ti-	1G	-mus
.	.	2G/	ma-	.	.	.	.
*	*	*	*	*	*	*	*Xij
=26	=26	=26	=26	=26	=26	=26	=26
!	!	!LO:TX:t=P:problem=kreska pseudotaktowa	!	!LO:TX:t=P:problem=kreska pseudotaktowa	!	!	!
1r	.	1A	-gnam	1A	-bi,	1F	ti-
!	!	!	!	!	!	!LO:TX:t=P:problem=kreska pseudotaktowa	!
2r	.	2G/	glo-	2r	.	0E	-bi,
!LO:TX:t=P:problem=kreska pseudotaktowa	!	!	!	!	!	!	!
2C/	prop-	2E/	-ri-	2c\	prop-	.	.
=27	=27	=27	=27	=27	=27	=27	=27
2C/	-ter	1G	-a(m)	2c\	-ter	.	.
*custos:D	*	*	*	*	*	*	*
!LO:TX:t=P:problem=kreska pseudotaktowa	!	!	!	!LO:TX:t=P:problem=kreska pseudotaktowa	!	!	!
2C/	ma-	.	.	2c\	ma-	.	.
!	!	!LO:TX:t=P:problem=kreska pseudotaktowa	!	!	!	!	!
!LO:LB:g=original	!	!	!	!	!	!	!
1D	-gna(m)	1F	tu-	2A/	-gna(m)	1r	.
.	.	.	.	2F/	gl(o-	.	.
=28	=28	=28	=28	=28	=28	=28	=28
!	!	!LO:TX:t=P:problem=kreska pseudotaktowa	!	!	!	!	!
2C/	glo-	0E	-am,	2G/	-ri)-	2r	.
!LO:TX:t=P:problem=kreska pseudotaktowa	!	!	!	!LO:TX:t=P:problem=kreska pseudotaktowa	!	!LO:TX:t=P:problem=kreska pseudotaktowa	!
2AA/	-ri-	.	.	2A/	-am	2c\	prop-
1C	-am	.	.	2G/	.	2c\	-ter
.	.	.	.	1A	tu-	2c\	ma-
=29	=29	=29	=29	=29	=29	=29	=29
1BB-	tu-	2r	.	.	.	1d	-gna(m)
!	!	!LO:TX:t=P:problem=kreska pseudotaktowa	!	!	!	!	!
*	*	*	*ij	*	*	*	*
.	.	2D/	glo-	2G/	.	.	.
!LO:TX:t=P:problem=kreska pseudotaktowa	!	!	!	!LO:TX:t=P:problem=kreska pseudotaktowa	!	!	!
0AA	-am;	2E/	-ri-	1A	-am,	2c\	glo-
!	!	!	!	!	!	!LO:TX:t=P:problem=kreska pseudotaktowa	!
.	.	2F/	.	.	.	2A/	-ri-
=30	=30	=30	=30	=30	=30	=30	=30
.	.	2E/	-a(m)	1r	.	1c	-a(m)
.	.	1A	tu-	.	.	.	.
1r	.	.	.	2r	.	1B-	tu-
!	!	!	!	!LO:TX:t=P:problem=kreska pseudotaktowa	!	!	!
.	.	2G/	.	2G/	Do-	.	.
=31	=31	=31	=31	=31	=31	=31	=31
*	*	*custos:A	*	*	*	*	*
!	!	!LO:TX:t=P:problem=kreska pseudotaktowa	!	!	!	!LO:TX:t=P:problem=kreska pseudotaktowa	!
2r	.	1A	-am,	1.c	-mi-	1A	-am,
*	*	*	*Xij	*	*	*	*
!LO:TX:t=P:problem=kreska pseudotaktowa	!	!	!	!	!	!	!
2FF/	Do-	.	.	.	.	.	.
!	!	!LO:LB:g=original	!	!	!	!	!
!	!	!LO:TX:a:t=5	!	!	!	!	!
1.F	-mi-	1r	.	.	.	1r	.
*	*	*	*	*custos:A	*	*	*
!	!	!	!	!LO:TX:t=P:problem=kreska pseudotaktowa	!	!	!
.	.	.	.	2c\	-ne	.	.
!	!	!	!	!LO:LB:g=original	!	!	!
=32	=32	=32	=32	=32	=32	=32	=32
.	.	0r	.	2.A/	de-	0r	.
2F\	-ne	.	.	.	.	.	.
!	!	!	!	!LO:TX:t=P:problem=kreska pseudotaktowa	!	!	!
.	.	.	.	4B-/	-us	.	.
2F\	de-	.	.	2c\	.	.	.
!LO:TX:t=P:problem=kreska pseudotaktowa	!	!	!	!	!	!	!
2D/	-us	.	.	2.d\	rex	.	.
=33	=33	=33	=33	=33	=33	=33	=33
2.G\	rex	0r	.	.	.	0r	.
.	.	.	.	4c\	.	.	.
.	.	.	.	4B-\	.	.	.
!LO:TX:t=P:problem=kreska pseudotaktowa	!	!	!	!LO:TX:t=P:problem=kreska pseudotaktowa	!	!	!
4F\	.	.	.	4A/	.	.	.
2E\	.	.	.	2G/	.	.	.
!LO:TX:t=P:problem=kreska pseudotaktowa	!	!	!	!	!	!	!
2D/	.	.	.	2.d\	.	.	.
=34	=34	=34	=34	=34	=34	=34	=34
2E\	c(ae)-	2r	.	.	.	2r	.
.	.	.	.	4c\	c(ae)leſ-	.	.
*custos:D	*	*	*	*	*	*	*
!	!	!LO:TX:t=P:problem=kreska pseudotaktowa	!	!	!	!LO:TX:t=P:problem=kreska pseudotaktowa	!
2F\	.	2A/	de-	1c	-tis,	2c\	de-
!LO:LB:g=original	!	!	!	!	!	!	!
1D	-leſ-	2A/	-us	.	.	2f\	-us
!	!	!	!	!LO:TX:t=P:problem=kreska pseudotaktowa	!	!	!
.	.	2F/	pa-	2B-\	.	2f\	pa-
=35	=35	=35	=35	=35	=35	=35	=35
*	*	*	*	*	*	*custos:d	*
!LO:TX:t=P:problem=kreska pseudotaktowa	!	!	!	!LO:TX:t=P:problem=kreska pseudotaktowa	!	!LO:TX:t=P:problem=kreska pseudotaktowa	!
1C	-tis	2G/	-ter	1c	.	1e	-ter
!	!	!LO:TX:t=P:problem=kreska pseudotaktowa	!	!	!	!	!
.	.	2A/	om-	.	.	.	.
!	!	!	!	!	!	!LO:LB:g=original	!
1r	.	1B-	-ni-	1r	.	1d	om-
=36	=36	=36	=36	=36	=36	=36	=36
0r	.	2A/	-po-	0r	.	2c\	-ni-
.	.	2.B-\	-tens,	.	.	2.d\	-po-
.	.	4A/	.	.	.	4c\	-tens
.	.	4G/	.	.	.	4B-/	.
!	!	!LO:TX:t=P:problem=kreska pseudotaktowa	!	!	!	!LO:TX:t=P:problem=kreska pseudotaktowa	!
.	.	4F/	.	.	.	4A/	.
=37	=37	=37	=37	=37	=37	=37	=37
!	!	!	!	!LO:TX:t=P:problem=kreska pseudotaktowa	!	!	!
1r	.	2G/	.	1r	.	2B-/	.
.	.	2G/	.	.	.	2B-/	.
!	!	!LO:TX:t=P:problem=kreska pseudotaktowa	!	!	!	!LO:TX:t=P:problem=kreska pseudotaktowa	!
1.FF	do-	0F	.	1.C	Do-	0A	.
=38	=38	=38	=38	=38	=38	=38	=38
.	.	.	.	.	.	.	.
!LO:TX:t=P:problem=kreska pseudotaktowa	!	!	!	!LO:TX:t=P:problem=kreska pseudotaktowa	!	!	!
2FF/	-mi-	.	.	2C/	  mi-	.	.
1BB-	-ne	1r	.	1D	-ne	1r	.
=39	=39	=39	=39	=39	=39	=39	=39
*	*	*	*	*custos:F	*	*	*
!	!	!	!	!LO:TX:t=P:problem=kreska pseudotaktowa	!	!	!
1GG	fi-	1r	.	1E	fi-	1r	.
!LO:TX:t=P:problem=kreska pseudotaktowa	!	!	!	!LO:TX:t=P:problem=kreska pseudotaktowa	!	!	!
!	!	!	!	!LO:LB:g=original	!	!	!
0FF	-li,	2r	.	0F	-li	2r	.
.	.	1A	v-	.	.	1c	v-
=40	=40	=40	=40	=40	=40	=40	=40
.	.	.	.	.	.	.	.
!	!	!LO:TX:t=P:problem=kreska pseudotaktowa	!	!	!	!LO:TX:t=P:problem=kreska pseudotaktowa	!
.	.	2A/	-ni-	.	.	2c\	-ni-
1r	.	1B-	-ge-	1r	.	1d	-ge-
=41	=41	=41	=41	=41	=41	=41	=41
*	*	*custos:F	*	*	*	*	*
!	!	!LO:TX:t=P:problem=kreska pseudotaktowa	!	!	!	!	!
0r	.	1G	-ni-	0r	.	1B-	-ni-
!	!	!LO:LB:g=original	!	!	!	!	!
!	!	!LO:TX:t=P:problem=kreska pseudotaktowa	!	!	!	!LO:TX:t=P:problem=kreska pseudotaktowa	!
.	.	1F	-te	.	.	1c	-te
=42	=42	=42	=42	=42	=42	=42	=42
!LO:TX:t=P:problem=kreska pseudotaktowa	!	!	!	!LO:TX:t=P:problem=kreska pseudotaktowa	!	!	!
0BB-	Ie-	0B-	Ie-	0F	Je-	0d	Ie-
=43	=43	=43	=43	=43	=43	=43	=43
!	!	!LO:TX:t=P:problem=kreska pseudotaktowa	!	!LO:TX:t=P:problem=kreska pseudotaktowa	!	!	!
1GG	-ſu	1B-	-ſu	1G	-ſu	1d	-ſu
*lig	*	*	*	*lig	*	*	*
1C	Chri-	2G/	Chri-	1E	Chri-	1c	Chri-
.	.	1A	-ſte,	.	.	.	.
=44	=44	=44	=44	=44	=44	=44	=44
*	*	*	*	*	*	*custos:c	*
!	!	!	!	!	!	!LO:TX:t=P:problem=kreska pseudotaktowa	!
1D	.	.	.	1F	.	1B-	-ſte,
.	.	4G/	.	.	.	.	.
.	.	4F/	.	.	.	.	.
!	!	!LO:TX:t=P:problem=kreska pseudotaktowa	!	!	!	!	!
*Xlig	*	*	*	*Xlig	*	*	*
!LO:TX:t=P:problem=kreska pseudotaktowa	!	!	!	!LO:TX:t=P:problem=kreska pseudotaktowa	!	!	!
!	!	!	!	!	!	!LO:LB:g=original	!
0C	-ſte,	4E/	.	0G	-ſte	0c	.
.	.	4C/	.	.	.	.	.
.	.	1F	.	.	.	.	.
=45	=45	=45	=45	=45	=45	=45	=45
.	.	.	.	.	.	.	.
!	!	!LO:TX:t=P:problem=kreska pseudotaktowa	!	!	!	!	!
.	.	2E/	.	.	.	.	.
!	!	!	!	!	!	!LO:TX:t=P:problem=kreska pseudotaktowa	!
1r	.	2F/	Do-	1F,	.	0c	.
.	.	2A/	-mi-	.	.	.	.
=46	=46	=46	=46	=46	=46	=46	=46
1.F	Do-	2A/	-ne	2.f\	Do-	.	.
!	!	!LO:TX:t=P:problem=kreska pseudotaktowa	!	!	!	!	!
.	.	2A/	de-	.	.	.	.
!	!	!	!	!LO:TX:t=P:problem=kreska pseudotaktowa	!	!	!
.	.	.	.	4e\	-mi-	.	.
.	.	2.F/	-us	2d\	-ne	1r	.
!LO:TX:t=P:problem=kreska pseudotaktowa	!	!	!	!	!	!	!
2F\	-mi-	.	.	2c\	.	.	.
.	.	4E/	.	.	.	.	.
=47	=47	=47	=47	=47	=47	=47	=47
1F,	-ne	4D/	.	2B-\	de-	0r	.
.	.	4C/	.	.	.	.	.
*	*	*custos:E	*	*	*	*	*
!	!	!	!	!LO:TX:t=P:problem=kreska pseudotaktowa	!	!	!
.	.	1F	.	2A\	-us	.	.
!LO:TX:t=P:problem=kreska pseudotaktowa	!	!	!	!	!	!	!
1B-X	de-	.	.	1G	a-	.	.
!	!	!LO:LB:g=original	!	!	!	!	!
!	!	!LO:TX:t=P:problem=kreska pseudotaktowa	!	!	!	!	!
.	.	2E/	.	.	.	.	.
=48	=48	=48	=48	=48	=48	=48	=48
!	!	!LO:TX:t=P:problem=kreska pseudotaktowa	!	!	!	!	!
2.A\	-uS	0F	.	0F	-gnus	2.f\	Do-
*custos:F	*	*	*	*	*	*	*
4G\	.	.	.	.	.	4e\	-mi-
!LO:LB:g=original	!	!	!	!	!	!	!
2F\	.	.	.	.	.	2d\	-ne
!LO:TX:t=P:problem=kreska pseudotaktowa	!	!	!	!	!	!LO:TX:t=P:problem=kreska pseudotaktowa	!
2E/	.	.	.	.	.	2c\	.
=49	=49	=49	=49	=49	=49	=49	=49
!	!	!	!	!LO:TX:t=P:problem=kreska pseudotaktowa	!	!	!
2D/	.	0r	.	1F	de-	2B-/	.
2C/	.	.	.	.	.	2A/	de-
!LO:TX:t=P:problem=kreska pseudotaktowa	!	!	!	!	!	!	!
1BB-	us,	.	.	1B-	-i	1d	-us;
=50	=50	=50	=50	=50	=50	=50	=50
!	!	!	!	!	!	!LO:TX:t=P:problem=kreska pseudotaktowa	!
2.F\	a-	0F	ag-	2.A/	fi-	1c	.
*	*	*	*	*custos:F	*	*	*
!	!	!	!	!LO:TX:t=P:problem=kreska pseudotaktowa	!	!	!
4E\	-gnus	.	.	4G/	-li-	.	.
!	!	!	!	!LO:LB:g=original	!	!	!
2D/	.	.	.	2F/	-us	1r	.
!LO:TX:t=P:problem=kreska pseudotaktowa	!	!	!	!	!	!	!
2C/	de-	.	.	2E/	.	.	.
=51	=51	=51	=51	=51	=51	=51	=51
!	!	!LO:TX:t=P:problem=kreska pseudotaktowa	!	!	!	!	!
2BB-/	-i	1F	-nus	2D/	.	0r	.
!	!	!	!	!LO:TX:t=P:problem=kreska pseudotaktowa	!	!	!
2AA/	.	.	.	2C/	.	.	.
!LO:TX:t=P:problem=kreska pseudotaktowa	!	!	!	!	!	!	!
1GG	fi-	1B-	de-	1G	pa-	.	.
=52	=52	=52	=52	=52	=52	=52	=52
!	!	!	!	!LO:TX:t=P:problem=kreska pseudotaktowa	!	!	!
1.D	-li-	2.A/	-i	1F	-tris	1.F	fi-
!	!	!LO:TX:t=P:problem=kreska pseudotaktowa	!	!	!	!	!
.	.	4G/	fi-	.	.	.	.
.	.	2F/	-li-	2r	.	.	.
!	!	!	!	!LO:TX:t=P:problem=kreska pseudotaktowa	!	!LO:TX:t=P:problem=kreska pseudotaktowa	!
*	*	*	*	*	*ij	*	*
2C/	-us	2E/	-us	2C/	fi-	2F/	-li-
=53	=53	=53	=53	=53	=53	=53	=53
2BB-/	.	2D/	pa-	2D/	-li-	1F	-us
!LO:TX:t=P:problem=kreska pseudotaktowa	!	!LO:TX:t=P:problem=kreska pseudotaktowa	!	!	!	!	!
2AA/	.	2C/	-tris	1F	-us	.	.
1GG	pa-	1G	.	.	.	1B-	.
.	.	.	.	2E/	pa-	.	.
=54	=54	=54	=54	=54	=54	=54	=54
*custos:F	*	*	*	*	*	*custos:c	*
0FF;ll	-tris;	0Cl	.	0Fl	-tris	0Al	.
!LO:LB:g=original	!	!	!	!	!	!LO:LB:g=original	!
*	*	*	*	*	*Xij	*	*
=55||	=55||	=55||	=55||	=55||	=55||	=55||	=55||
*yyM2/1	*	*M2/1	*	*M2/1	*	*yyM2/1	*
*	*	*met(C|)	*	*met(C|)	*	*	*
!	!	!LO:TX:t=P:problem=kreska pseudotaktowa	!	!	!	!	!
0r	.	1F	Qui	0r	.	1c	Qui
.	.	2F/	tol-	.	.	2c\	tol-
*	*	*custos:B-	*	*	*	*	*
!	!	!LO:TX:t=P:problem=kreska pseudotaktowa	!	!	!	!LO:TX:t=P:problem=kreska pseudotaktowa	!
.	.	2F/	-lis	.	.	2c\	-lis
!	!	!LO:LB:g=original	!	!	!	!	!
=56	=56	=56	=56	=56	=56	=56	=56
!	!	!	!	!LO:TX:a:t=4	!	!	!
0r	.	2B-\	pec-	0r	.	2d\	pec-
!	!	!LO:TX:t=P:problem=kreska pseudotaktowa	!	!	!	!	!
.	.	2A\	-ca-	.	.	2c\	-ca-
.	.	2B-\	-ta	.	.	2d\	-ta
.	.	2G/	mun-	.	.	2e\	mun-
=57	=57	=57	=57	=57	=57	=57	=57
!	!	!LO:TX:t=P:problem=kreska pseudotaktowa	!	!LO:TX:t=P:problem=kreska pseudotaktowa	!	!LO:TX:t=P:problem=kreska pseudotaktowa	!
2r	.	1F	-di	2r	.	0f	  di,
1F	mi-	.	.	1c	mi-	.	.
.	.	1r	.	.	.	.	.
!LO:TX:t=P:problem=kreska pseudotaktowa	!	!	!	!LO:TX:t=P:problem=kreska pseudotaktowa	!	!	!
2F\	-ſe-	.	.	2c\	-ſe-	.	.
=58	=58	=58	=58	=58	=58	=58	=58
1G	-re-	0r	.	1B-	-re-	0r	.
2F\	-re	.	.	2A\	-re	.	.
!	!	!	!	!LO:TX:t=P:problem=kreska pseudotaktowa	!	!	!
1G	no-	.	.	2B-\	.	.	.
=59	=59	=59	=59	=59	=59	=59	=59
*	*	*	*	*custos:c	*	*	*
.	.	1r	.	2G/	no-	0r	.
!	!	!	!	!LO:LB:g=original	!	!	!
4F\	-bis;	.	.	1c	.	.	.
!LO:TX:t=P:problem=kreska pseudotaktowa	!	!	!	!	!	!	!
4E\	.	.	.	.	.	.	.
1D	.	2r	.	.	.	.	.
!	!	!LO:TX:t=P:problem=kreska pseudotaktowa	!	!LO:TX:t=P:problem=kreska pseudotaktowa	!	!	!
*	*	*	*ij	*	*	*	*ij
.	.	2F/	Qui	2B-\	.	.	.
=60	=60	=60	=60	=60	=60	=60	=60
!LO:TX:t=P:problem=kreska pseudotaktowa	!	!	!	!LO:TX:t=P:problem=kreska pseudotaktowa	!	!	!
1C	.	1.G	tol-	1c	-bis,	1r	.
1r	.	.	.	1r	.	2r	.
!	!	!LO:TX:t=P:problem=kreska pseudotaktowa	!	!	!	!	!
.	.	2G/	-lis	.	.	1d	Qui
=61	=61	=61	=61	=61	=61	=61	=61
0r	.	2F/	pec-	2r	.	.	.
!	!	!	!	!LO:TX:t=P:problem=kreska pseudotaktowa	!	!LO:TX:t=P:problem=kreska pseudotaktowa	!
.	.	2D/	-ca-	2f\	qui	2d\	tol-
.	.	2E/	.	2e\	tol-	2c\	-lis
!	!	!LO:TX:t=P:problem=kreska pseudotaktowa	!	!	!	!	!
.	.	2F/	.	2c\	-lis	2A/	pec-
=62	=62	=62	=62	=62	=62	=62	=62
0r	.	2D/	-ta	2d\	pec-	2B-/	.
!	!	!LO:TX:t=P:problem=poprawka wysokości	!	!LO:TX:t=P:problem=kreska pseudotaktowa	!	!LO:TX:t=P:problem=kreska pseudotaktowa	!
.	.	1A	mun-	2e\	-ca-	2c\	-ca-
.	.	.	.	2c\	-ta	2A/	-ta
!	!	!LO:TX:t=P:problem=kreska pseudotaktowa	!	!	!	!	!
.	.	2F/	.	2A/	mun-	2.d\	mun-
=63	=63	=63	=63	=63	=63	=63	=63
0r	.	2G/	.	2B-/	-di,	.	.
*	*	*	*	*	*	*custos:c	*
.	.	.	.	.	.	4c\	-di
*	*	*	*	*	*	*	*Xij
!	!	!	!	!LO:TX:t=P:problem=kreska pseudotaktowa	!	!	!
!	!	!	!	!	!	!LO:LB:g=original	!
.	.	2A/	.	2c\	.	1c	Su-
*	*	*custos:C	*	*	*	*	*
!	!	!LO:TX:t=P:problem=kreska pseudotaktowa	!	!	!	!	!
.	.	1G	.	1d	.	.	.
!	!	!	!	!	!	!LO:TX:t=P:problem=kreska pseudotaktowa	!
.	.	.	.	.	.	2B-\	-ſci-
!	!	!LO:LB:g=original	!	!	!	!	!
=64	=64	=64	=64	=64	=64	=64	=64
!LO:TX:t=P:problem=kreska pseudotaktowa	!	!LO:TX:t=P:problem=kreska pseudotaktowa	!	!LO:TX:t=P:problem=kreska pseudotaktowa	!	!LO:TX:t=P:problem=kreska pseudotaktowa	!
1r	.	1C	-di	1c	.	1c	-pe
*	*	*	*Xij	*	*	*	*
1.FF	Su-	1.c	Su-	1.F	ſu-	1.A	.
=65	=65	=65	=65	=65	=65	=65	=65
.	.	.	.	.	.	.	.
!	!	!LO:TX:t=P:problem=kreska pseudotaktowa	!	!	!	!	!
2FF/	-ſci-	2c\	-ſci-	2F/	-ſci-	2A/	.
*	*	*	*	*custos:E	*	*	*
!	!	!	!	!LO:TX:t=P:problem=kreska pseudotaktowa	!	!LO:TX:t=P:problem=kreska pseudotaktowa	!
2FF/	-pe	2c\	-pe	1C	-pe	1A	.
!LO:TX:t=P:problem=kreska pseudotaktowa	!	!LO:TX:t=P:problem=kreska pseudotaktowa	!	!	!	!	!
2AA/	de-	2C/	de-	.	.	.	.
!	!	!	!	!LO:LB:g=original	!	!	!
=66	=66	=66	=66	=66	=66	=66	=66
2GG/	-pre-	2D/	  pre-	0r	.	2r	.
!	!	!LO:TX:t=P:problem=kreska pseudotaktowa	!	!	!	!	!
2FF/	-ca-	2F/	-ca-	.	.	2A/	de-
1.C	-ti-	2.E/	-ti-	.	.	2A/	-pre-
!	!	!	!	!	!	!LO:TX:t=P:problem=kreska pseudotaktowa	!
.	.	.	.	.	.	2G/	-ca-
.	.	4F/	-o-	.	.	.	.
=67	=67	=67	=67	=67	=67	=67	=67
.	.	2G/	-nem	2r	.	2c\	-ti-
*custos:BB-	*	*	*	*	*	*	*
!LO:TX:t=P:problem=kreska pseudotaktowa	!	!LO:TX:t=P:problem=kreska pseudotaktowa	!	!LO:TX:t=P:problem=kreska pseudotaktowa	!	!	!
2AA/	-o-	2A/	noſ-	2E/	de-	2c\	-o-
!LO:LB:g=original	!	!	!	!	!	!	!
2BB-/	-ne(m)	1G	-tram,	2D/	-pre-	2B-\	-ne(m)
!	!	!	!	!LO:TX:t=P:problem=kreska pseudotaktowa	!	!LO:TX:t=P:problem=kreska pseudotaktowa	!
2C/	n(os-	.	.	2C/	-ca-	2G/	noſ-
=68	=68	=68	=68	=68	=68	=68	=68
!LO:TX:t=P:problem=kreska pseudotaktowa	!	!LO:TX:t=P:problem=kreska pseudotaktowa	!	!	!	!	!
1FF	-t)ram,	1F	.	1.F	-ti-	1A	  tram,
2r	.	1r	.	.	.	2r	.
!	!	!	!	!LO:TX:t=P:problem=kreska pseudotaktowa	!	!LO:TX:t=P:problem=kreska pseudotaktowa	!
*	*ij	*	*	*	*	*	*ij
2F\	de-	.	.	2D/	-o-	2A/	de-
=69	=69	=69	=69	=69	=69	=69	=69
2E\	-pre-	0r	.	2E/	-nem	2G/	-pre-
*	*	*	*	*	*	*custos:c	*
!LO:TX:t=P:problem=kreska pseudotaktowa	!	!	!	!	!	!LO:TX:t=P:problem=kreska pseudotaktowa	!
2D/	.	.	.	2F/	.	2F/	.
!	!	!	!	!	!	!LO:LB:g=original	!
2C/	-ca-	.	.	2G/	.	1.c	-ca-
!	!	!	!	!LO:TX:t=P:problem=kreska pseudotaktowa	!	!	!
2AA/	-ti-	.	.	2A/	.	.	.
=70	=70	=70	=70	=70	=70	=70	=70
2C/	-o-	1r	.	2G/	.	.	.
!	!	!	!	!	!	!LO:TX:t=P:problem=kreska pseudotaktowa	!
1D	.	.	.	2.F/	.	2A\	   ti-
.	.	2r	.	.	.	2B-\	-o-
.	.	.	.	4E/	noſ-	.	.
!LO:TX:t=P:problem=kreska pseudotaktowa	!	!	!	!	!	!	!
2C/	-ne(m)	1E	qui	1A	-tram,	2c\	-ne(m)
=71	=71	=71	=71	=71	=71	=71	=71
1BB-	n(os-	.	.	.	.	1d	noſ-
!	!	!LO:TX:t=P:problem=kreska pseudotaktowa	!	!LO:TX:t=P:problem=kreska pseudotaktowa	!	!	!
.	.	2D/	ſe-	2G/	.	.	.
!LO:TX:t=P:problem=kreska pseudotaktowa	!	!	!	!	!	!LO:TX:t=P:problem=kreska pseudotaktowa	!
1AA	-t)ram,	1E	-des	1A	.	1c	-tram,
*	*Xij	*	*	*	*	*	*Xij
=72	=72	=72	=72	=72	=72	=72	=72
!	!	!LO:TX:t=P:problem=kreska pseudotaktowa	!	!LO:TX:t=P:problem=kreska pseudotaktowa	!	!	!
0r	.	1F	ad	1D	.	2r	.
.	.	.	.	.	.	1A	qui
.	.	2E/	dex-	1r	.	.	.
*	*	*custos:F	*	*	*	*	*
!	!	!	!	!	!	!LO:TX:t=P:problem=kreska pseudotaktowa	!
.	.	2C/	-te-	.	.	2G/	ſe-
!	!	!LO:LB:g=original	!	!	!	!	!
=73	=73	=73	=73	=73	=73	=73	=73
0r	.	1F	-ram	1r	.	1A	  des
.	.	1G	pa-	2r	.	1B-	ad
!	!	!	!	!LO:TX:t=P:problem=kreska pseudotaktowa	!	!	!
.	.	.	.	2G/	ad	.	.
=74	=74	=74	=74	=74	=74	=74	=74
!	!	!LO:TX:t=P:problem=kreska pseudotaktowa	!	!	!	!	!
2r	.	1D	-tris,	2F/	dex-	2A/	dex-
*	*	*	*	*custos:E	*	*	*
!LO:TX:t=P:problem=kreska pseudotaktowa	!	!	!	!	!	!LO:TX:t=P:problem=kreska pseudotaktowa	!
2BB-/	ad	.	.	2D/	-te-	2F/	-te-
!	!	!	!	!LO:LB:g=original	!	!	!
2AA/	dex-	1r	.	2E/	-ram	1c	-ram
!	!	!	!	!LO:TX:t=P:problem=kreska pseudotaktowa	!	!	!
2FF/	-te-	.	.	2A/	.	.	.
=75	=75	=75	=75	=75	=75	=75	=75
1BB-	-ra(m)	0r	.	2G/	pa-	1B-	pa-
.	.	.	.	1F	-tris	.	.
!LO:TX:t=P:problem=kreska pseudotaktowa	!	!	!	!	!	!	!
1C	p(at)-	.	.	.	.	1G	-tris,
!	!	!	!	!LO:TX:t=P:problem=kreska pseudotaktowa	!	!	!
.	.	.	.	2E/	mi-	.	.
=76	=76	=76	=76	=76	=76	=76	=76
*	*	*	*	*	*	*custos:c	*
*custos:F	*	*	*	*	*	*	*
!	!	!LO:TX:t=P:problem=kreska pseudotaktowa	!	!	!	!LO:TX:t=P:problem=kreska pseudotaktowa	!
2FF/	-ris,	2r	.	2F/	-ſe-	1A	.
!LO:LB:g=original	!	!	!	!	!	!	!
1F	mi-	1A	mi-	1D	-re-	.	.
!	!	!	!	!	!	!LO:LB:g=original	!
!	!	!	!	!	!	!LO:TX:a:t=7	!
.	.	.	.	.	.	1r	.
!LO:TX:t=P:problem=kreska pseudotaktowa	!	!LO:TX:t=P:problem=kreska pseudotaktowa	!	!LO:TX:t=P:problem=kreska pseudotaktowa	!	!	!
2E\	-ſe-	2c\	-ſe-	2C/	-re	.	.
=77	=77	=77	=77	=77	=77	=77	=77
2D/	-re-	2B-\	-re-	2F/	.	0r	.
2C/	-re	1A	-re	1E	.	.	.
!LO:TX:t=P:problem=kreska pseudotaktowa	!	!	!	!	!	!	!
1BB-	no-	.	.	.	.	.	.
!	!	!LO:TX:t=P:problem=kreska pseudotaktowa	!	!	!	!	!
.	.	2G/	no-	2D/	no-	.	.
=78	=78	=78	=78	=78	=78	=78	=78
!	!	!	!	!LO:TX:t=P:problem=kreska pseudotaktowa	!	!	!
2AA/	-bis,	2A/	-bis,	0E	-bis,	0r	.
1C	Quo-	1G	Quo-	.	.	.	.
!LO:TX:t=P:problem=kreska pseudotaktowa	!	!LO:TX:t=P:problem=kreska pseudotaktowa	!	!	!	!	!
2AA/	.	2A/	-ni-	.	.	.	.
=79	=79	=79	=79	=79	=79	=79	=79
2BB-/	-ni-	2G/	-am	0r	.	0r	.
2C/	-a(m)	2E/	tu	.	.	.	.
2FF/	tu	2F/	ſo-	.	.	.	.
!	!	!LO:TX:t=P:problem=kreska pseudotaktowa	!	!	!	!	!
1F	ſo-	2D/	-lus	.	.	.	.
=80	=80	=80	=80	=80	=80	=80	=80
.	.	1C	ſanc-	0r	.	2r	.
!LO:TX:t=P:problem=kreska pseudotaktowa	!	!	!	!	!	!LO:TX:t=P:problem=kreska pseudotaktowa	!
2E\	-lus	.	.	.	.	2c\	tu
*	*	*custos:C	*	*	*	*	*
!	!	!LO:TX:t=P:problem=kreska pseudotaktowa	!	!	!	!	!
2.F\	ſanc-	1F	-tus	.	.	2c\	ſo-
.	.	.	.	.	.	2A/	-lus
4E\	-tus,	.	.	.	.	.	.
!	!	!LO:LB:g=original	!	!	!	!	!
=81	=81	=81	=81	=81	=81	=81	=81
2D/	.	2r	.	2r	.	2B-/	do-
!LO:TX:t=P:problem=kreska pseudotaktowa	!	!LO:TX:t=P:problem=kreska pseudotaktowa	!	!LO:TX:t=P:problem=kreska pseudotaktowa	!	!LO:TX:t=P:problem=kreska pseudotaktowa	!
2C/	.	2C/	tu	2c\	tu	2c\	-mi-
1r	.	2.F/	ſo-	2c\	ſo-	2F/	-nus,
!	!	!	!	!LO:TX:t=P:problem=kreska pseudotaktowa	!	!	!
.	.	.	.	2A\	-lus	1f	.
.	.	4E/	-lus	.	.	.	.
=82	=82	=82	=82	=82	=82	=82	=82
!	!	!	!	!LO:TX:t=P:problem=przeróbki tekstu	!	!	!
2r	.	2D/	do-	2B-\	Do-	.	.
!LO:TX:t=P:problem=kreska pseudotaktowa	!	!LO:TX:t=P:problem=kreska pseudotaktowa	!	!LO:TX:t=P:problem=kreska pseudotaktowa	!	!	!
2G\	tu	2C/	-mi-	2c\	-mi-	2e\	.
*custos:D	*	*	*	*custos:d	*	*	*
!	!	!LO:TX:t=P:problem=kreska pseudotaktowa	!	!	!	!LO:TX:t=P:problem=kreska pseudotaktowa	!
2F\	ſo-	1D	-nus,	2A,/	-nus	0f	.
!LO:LB:g=original	!	!	!	!LO:TX:t=P:problem=kreska pseudotaktowa	!	!	!
!	!	!	!	!LO:LB:g=original	!	!	!
2D/	-lus	.	.	2d\	tu-	.	.
=83	=83	=83	=83	=83	=83	=83	=83
!LO:TX:t=P:problem=kreska pseudotaktowa	!	!	!	!	!	!	!
1F	al-	0r	.	2c\	-ſo-	.	.
.	.	.	.	2A/	-lus	.	.
!	!	!	!	!LO:TX:t=P:problem=kreska pseudotaktowa	!	!	!
2E/	-tiſ-	.	.	1c	al-	1r	.
2C/	-si-	.	.	.	.	.	.
=84	=84	=84	=84	=84	=84	=84	=84
2.G\	-mus	2r	.	2B-\	-tiſ-	1r	.
!	!	!LO:TX:t=P:problem=kreska pseudotaktowa	!	!	!	!	!
.	.	2G/	tu	2G/	-ſi-	.	.
8F\L	.	.	.	.	.	.	.
8E\J	.	.	.	.	.	.	.
!LO:TX:t=P:problem=kreska pseudotaktowa	!	!	!	!	!	!	!
1D	.	2F/	ſo-	2.d\	-mus	2r	.
!	!	!	!	!	!	!LO:TX:t=P:problem=kreska pseudotaktowa	!
.	.	2D/	-lus	.	.	2d\	tu
.	.	.	.	8c\L	.	.	.
.	.	.	.	8B-\J	.	.	.
=85	=85	=85	=85	=85	=85	=85	=85
!	!	!LO:TX:t=P:problem=kreska pseudotaktowa	!	!LO:TX:t=P:problem=kreska pseudotaktowa	!	!	!
0r	.	1F	al-	1A	.	2c\	ſo-
!	!	!	!	!	!	!LO:TX:t=P:problem=kreska pseudotaktowa	!
.	.	.	.	.	.	2A/	-lus
!	!	!	!	!	!	!LO:TX:t=P:problem=kreska pseudotaktowa	!
.	.	2E/	-tiſ-	1r	.	1c	al-
.	.	2C/	-ſi-	.	.	.	.
=86	=86	=86	=86	=86	=86	=86	=86
2r	.	2.G/	-mus	1r	.	2B-\	-tiſ-
!LO:TX:t=P:problem=kreska pseudotaktowa	!	!	!	!	!	!LO:TX:t=P:problem=kreska pseudotaktowa	!
2C/	al-	.	.	.	.	2G/	-ſi-
.	.	8F/L	.	.	.	.	.
.	.	8E/J	.	.	.	.	.
!	!	!LO:TX:t=P:problem=kreska pseudotaktowa	!	!	!	!	!
2BB-/	-tiſ-	1D	.	2r	.	2.d\	-mus
!	!	!	!	!LO:TX:t=P:problem=kreska pseudotaktowa	!	!	!
*	*	*	*	*	*ij	*	*
2GG/	-ſi-	.	.	2G/	al-	.	.
.	.	.	.	.	.	8c\L	.
.	.	.	.	.	.	8B-\J	.
=87	=87	=87	=87	=87	=87	=87	=87
*	*	*	*	*	*	*custos:c	*
!	!	!	!	!	!	!LO:TX:t=P:problem=kreska pseudotaktowa	!
2.D/	-mus	0r	.	2F/	-tiſ-	1A	.
.	.	.	.	2D/	-ſi-	.	.
8C/L	.	.	.	.	.	.	.
8BB-/J	.	.	.	.	.	.	.
!LO:TX:t=P:problem=kreska pseudotaktowa	!	!	!	!LO:TX:t=P:problem=kreska pseudotaktowa	!	!	!
!	!	!	!	!	!	!LO:LB:g=original	!
1AA;	.	.	.	1A	-mus	1r	.
*	*	*	*	*	*Xij	*	*
=88	=88	=88	=88	=88	=88	=88	=88
!LO:TX:b:t=3	!	!	!	!	!	!	!
*col	*	*	*	*	*	*	*
!LO:TX:t=P:problem=a może te zaczernione nuty w metrum trójdzielnym, według przekreśleń w Bassus? 	!	!	!	!	!	!	!
*	*	*col	*	*col	*	*	*
!	!	!	!	!LO:TX:b:t=3	!	!	!
*	*	*	*	*	*	*col	*
0C	Ie-	0E	Ie	0G	Ie-	0c	Ie-
=89	=89	=89	=89	=89	=89	=89	=89
!LO:TX:t=P:problem=nuta przekreślona	!	!	!	!	!	!	!
0FF	-ſu	0F	ſu	0A	-ſu	0c	-ſu
=90	=90	=90	=90	=90	=90	=90	=90
*custos:AA	*	*custos:E	*	*	*	*	*
0BB-	Chri-	0D	Chri-	1F	Chri-	0d	Chri-
*	*	*	*	*custos:A	*	*	*
!	!	!	!	!LO:TX:t=P:problem=kreska pseudotaktowa	!	!	!
.	.	.	.	1G	.	.	.
!LO:LB:g=original	!	!LO:LB:g=original	!	!LO:LB:g=original	!	!	!
=91	=91	=91	=91	=91	=91	=91	=91
0AA	-ſte	0E	-ſte,	0A	-ſte,	0c	-ſte,
=92	=92	=92	=92	=92	=92	=92	=92
!LO:TX:t=P:problem=kreska pseudotaktowa	!	!LO:TX:t=P:problem=kreska pseudotaktowa	!	!LO:TX:t=P:problem=kreska pseudotaktowa	!	!	!
1r	.	1r	.	1r	.	1r	.
*	*ij	*	*	*	*	*	*
0C	Ie-	0E	.	0G	.	0c	.
=93	=93	=93	=93	=93	=93	=93	=93
.	.	.	.	.	.	.	.
!LO:TX:t=P:problem=nuta przekreślona	!	!	!	!	!	!	!
0FF	-ſu	0F	.	0A	.	0c	.
=94	=94	=94	=94	=94	=94	=94	=94
.	.	.	.	.	.	.	.
!LO:TX:t=P:problem=kreska pseudotaktowa	!	!LO:TX:t=P:problem=kreska pseudotaktowa	!	!	!	!	!
0BB-	Chri-	0D	.	1F	.	0d	.
*Xcol	*	*	*	*	*	*Xcol	*
=95	=95	=95	=95	=95	=95	=95	=95
.	.	.	.	1G	.	.	.
*	*	*	*	*Xcol	*	*	*
!	!	!LO:TX:t=P:problem=kreska pseudotaktowa	!	!	!	!	!
!	!	!LO:TX:a:t=2	!	!LO:TX:t=P:problem=kreska pseudotaktowa	!	!	!
0AA	-ſte	1E	.	0.A	.	[1cl	.
*	*Xij	*Xcol	*	*	*	*	*
=96	=96	=96	=96	=96	=96	=96	=96
.	.	2r	.	.	.	0c_	.
!	!	!LO:TX:t=P:problem=kreska pseudotaktowa	!	!	!	!	!
.	.	2C/	Cum	.	.	.	.
2r	.	2.c\	ſanc-	.	.	.	.
1FF	cum	.	.	.	.	.	.
!	!	!LO:TX:t=P:problem=kreska pseudotaktowa	!	!	!	!	!
.	.	4B-\	-to	.	.	.	.
=97	=97	=97	=97	=97	=97	=97	=97
.	.	2.A/	ſpi-	2r	.	1c]	.
!LO:TX:t=P:problem=kreska pseudotaktowa	!	!	!	!LO:TX:t=P:problem=kreska pseudotaktowa	!	!	!
2FF/	ſ(an)-	.	.	2F/	cum	.	.
!	!	!LO:TX:t=P:problem=kreska pseudotaktowa	!	!	!	!	!
.	.	4G/	-ri-	.	.	.	.
2FF/	-cto	2F/	-tu,	1c	ſanc-	1r	.
2FF/	ſpi-	2E/	.	.	.	.	.
=98	=98	=98	=98	=98	=98	=98	=98
!	!	!LO:TX:t=P:problem=kreska pseudotaktowa	!	!LO:TX:t=P:problem=kreska pseudotaktowa	!	!	!
1BB-	-ri-	1D	.	1d	-to	2r	.
!	!	!	!	!	!	!LO:TX:t=P:problem=kreska pseudotaktowa	!
.	.	.	.	.	.	2F/	cum
!LO:TX:t=P:problem=kreska pseudotaktowa	!	!	!	!	!	!	!
1AA	-tu;	2r	.	1.c	ſpi-	2F/	ſanc-
*	*	*	*ij	*	*	*	*
.	.	1C	Cum	.	.	2F/	-to
=99	=99	=99	=99	=99	=99	=99	=99
2r	.	.	.	.	.	1.c	ſpi-
!	!	!LO:TX:t=P:problem=kreska pseudotaktowa	!	!	!	!	!
2FF/	in	2C/	ſanc-	4B-\	.	.	.
!	!	!	!	!LO:TX:t=P:problem=kreska pseudotaktowa	!	!	!
.	.	.	.	4A\	.	.	.
2C/	glo-	2C/	-to	2G/	.	.	.
!LO:TX:t=P:problem=kreska pseudotaktowa	!	!	!	!	!	!LO:TX:t=P:problem=kreska pseudotaktowa	!
2C/	-ria	2C/	ſpi-	1c	.	2c\	-ri-
=100	=100	=100	=100	=100	=100	=100	=100
1D	de-	1F	-ri-	.	.	2A/	-tu;
!	!	!	!	!LO:TX:t=P:problem=kreska pseudotaktowa	!	!	!
.	.	.	.	2B-\	-ri-	2F/	.
*	*	*custos:C	*	*	*	*	*
!	!	!LO:TX:t=P:problem=kreska pseudotaktowa	!	!	!	!LO:TX:t=P:problem=kreska pseudotaktowa	!
1.C	-i	1E	-tu	2c\	-tu,	1G	.
!	!	!	!	!LO:TX:t=P:problem=kreska pseudotaktowa	!	!	!
*	*	*	*	*	*ij	*	*
.	.	.	.	2C/	cum	.	.
!	!	!LO:LB:g=original	!	!	!	!	!
=101	=101	=101	=101	=101	=101	=101	=101
*	*	*	*	*custos:A	*	*	*
.	.	2r	.	2G/	ſanc-	0r	.
!	!	!LO:TX:t=P:problem=kreska pseudotaktowa	!	!LO:TX:t=P:problem=kreska pseudotaktowa	!	!	!
!	!	!	!	!LO:LB:g=original	!	!	!
2AA/	.	2C/	cum	2A/	-to	.	.
*custos:FF	*	*	*	*	*	*	*
!LO:TX:t=P:problem=kreska pseudotaktowa	!	!	!	!	!	!	!
1BB-	pa-	2G/	ſanc-	2.D/	ſpi-	.	.
.	.	2G/	-to-	.	.	.	.
.	.	.	.	4E/	-ri-	.	.
!LO:LB:g=original	!	!	!	!	!	!	!
=102	=102	=102	=102	=102	=102	=102	=102
!	!	!LO:TX:t=P:problem=kreska pseudotaktowa	!	!LO:TX:t=P:problem=kreska pseudotaktowa	!	!	!
1FF	-tris,	1A	-ſpi-	0F	-tu	2r	.
*	*	*	*	*	*Xij	*	*ij
.	.	.	.	.	.	1F	cum
1.BB-	.	2.D/	-ri-	.	.	.	.
!	!	!	!	!	!	!LO:TX:t=P:problem=kreska pseudotaktowa	!
.	.	.	.	.	.	2F/	ſanc-
.	.	4C/	.	.	.	.	.
=103	=103	=103	=103	=103	=103	=103	=103
*	*	*	*	*	*	*custos:F	*
.	.	4D/	-tu	0r	.	2F/	-to
*	*	*	*Xij	*	*	*	*
.	.	4E/	.	.	.	.	.
!	!	!	!	!	!	!LO:LB:g=original	!
2AA/	A-	1F	in	.	.	2F/	ſpi-
1GG	-men:	.	.	.	.	1B-	-ri-
!	!	!LO:TX:t=P:problem=kreska pseudotaktowa	!	!	!	!	!
.	.	2E/	glo-	.	.	.	.
=104	=104	=104	=104	=104	=104	=104	=104
!LO:TX:t=P:problem=kreska pseudotaktowa	!	!	!	!	!	!LO:TX:t=P:problem=kreska pseudotaktowa	!
0FF	.	2F/	-ri-	0F	in	1A	-tu
*	*	*	*	*	*	*	*Xij
.	.	2c\	-a	.	.	.	.
.	.	2c\	de-	.	.	2r	.
.	.	2c\	-i	.	.	2F/	in
=105	=105	=105	=105	=105	=105	=105	=105
!	!	!LO:TX:t=P:problem=kreska pseudotaktowa	!	!LO:TX:t=P:problem=kreska pseudotaktowa	!	!	!
2r	.	1A	.	1F	glo-	1c	glo-
*	*ij	*	*	*	*	*	*
2AA/	in	.	.	.	.	.	.
!	!	!	!	!	!	!LO:TX:t=P:problem=kreska pseudotaktowa	!
2BB-/	glo-	2r	.	1B-	-ria	1d	.
!LO:TX:t=P:problem=kreska pseudotaktowa	!	!	!	!	!	!	!
2BB-/	-ri-	4F/	de-	.	.	.	.
!	!	!LO:TX:t=P:problem=kreska pseudotaktowa	!	!	!	!	!
.	.	4G/	-i	.	.	.	.
=106	=106	=106	=106	=106	=106	=106	=106
2FF/	-a	4A/	pa-	2.A/	de-	1.c	-ri-
.	.	4B-/	-tris	.	.	.	.
1F	de-	1c	.	.	.	.	.
!	!	!	!	!LO:TX:t=P:problem=kreska pseudotaktowa	!	!	!
.	.	.	.	4G/	-i	.	.
.	.	.	.	2F/	.	.	.
*	*	*custos:c	*	*	*	*	*
!LO:TX:t=P:problem=kreska pseudotaktowa	!	!LO:TX:t=P:problem=kreska pseudotaktowa	!	!LO:TX:t=P:problem=kreska pseudotaktowa	!	!	!
2C/	-i	2c\	A-	2E/	.	2c\	-a
!	!	!LO:LB:g=original	!	!	!	!	!
=107	=107	=107	=107	=107	=107	=107	=107
2F\	pa-	2c\	-men	4D/	.	2A/	de-
.	.	.	.	4C/	.	.	.
!	!	!	!	!	!	!LO:TX:t=P:problem=kreska pseudotaktowa	!
2D/	-tris,	2B-\	.	1F	p(at)-	2F/	-i
!LO:TX:t=P:problem=kreska pseudotaktowa	!	!LO:TX:t=P:problem=kreska pseudotaktowa	!	!	!	!	!
1C	A-	1c	.	.	.	1G	pa-
!	!	!	!	!LO:TX:t=P:problem=kreska pseudotaktowa	!	!	!
.	.	.	.	2F/	-ris,	.	.
=108	=108	=108	=108	=108	=108	=108	=108
1FF	-men	1A	.	2r	.	4F/	-tris;
*	*Xij	*	*	*	*ij	*	*
.	.	.	.	.	.	4G/	.
*	*	*	*	*custos:A	*	*	*
!	!	!	!	!LO:TX:t=P:problem=kreska pseudotaktowa	!	!	!
.	.	.	.	2F/	glo-	4A/	.
!	!	!	!	!	!	!LO:TX:t=P:problem=kreska pseudotaktowa	!
.	.	.	.	.	.	4B-/	.
!	!	!LO:TX:t=P:problem=kreska pseudotaktowa	!	!	!	!	!
!	!	!	!	!LO:LB:g=original	!	!	!
2r	.	1F	.	2.A/	-ri-	2c\	A-
!LO:TX:t=P:problem=kreska pseudotaktowa	!	!	!	!	!	!	!
2FF/	de-	.	.	.	.	1A	-men:
!	!	!	!	!LO:TX:t=P:problem=kreska pseudotaktowa	!	!	!
.	.	.	.	4B-\	-a	.	.
=109	=109	=109	=109	=109	=109	=109	=109
2.AA/	-i	2r	.	2c\	de-	.	.
.	.	2F/	A-	2d\	-i	4G/	.
!	!	!	!	!	!	!LO:TX:t=P:problem=kreska pseudotaktowa	!
4BB-/	pa-	.	.	.	.	4F/	.
2C/	-tris	2.A/	-men	2c\	p(at)-	2E/	.
!	!	!	!	!LO:TX:t=P:problem=kreska pseudotaktowa	!	!	!
2D/	.	.	.	2F/	-ris,	1F	.
*	*	*	*	*	*Xij	*	*
!	!	!LO:TX:t=P:problem=kreska pseudotaktowa	!	!	!	!	!
.	.	4B-\	.	.	.	.	.
=110	=110	=110	=110	=110	=110	=110	=110
1C	A-	1c	.	2.G/	A-	.	.
.	.	.	.	.	.	2E/	.
.	.	.	.	4A/	-men:	.	.
0BB-	-men:	0d	.	0B-	.	[1Fl	.
=111	=111	=111	=111	=111	=111	=111	=111
.	.	.	.	.	.	0F]	.
1FFl	.	1cl	.	1Al	.	.	.
==	==	==	==	==	==	==	==
*-	*-	*-	*-	*-	*-	*-	*-
!!!system-decoration: [(s1,s2,s3,s4)]
!!!RDF**kern: l = terminal long
!!!ENC: Mateusz Solarz
!!!END: 2022-01-31
!!!ENC: Natalia Wrzos
!!!END: 2022-02-15
